X:23
T:18a. Bobbing Cork, The
C:Larry Mallette
R:Hornpipe
M:C|
Q:300
L:1/8
K:Em
"Hornpipe"
BA|GAFG E3G|DEGB AF~F2|GFGA BABd|egfd e2ef|
gfed eB~B2|dBGB AF~F2|EGDE GedB|AGFG E2:|
ef|gafg eB~B2|eBGB AF~F2|EGDE GABd|egfd e3f|
gfed eB~B2|dBGB AF~F2|EGDE GedB|AGFG E2:|





